X:1
T:O Canada
T:Calixa Lavalle
T:O Canada
T:Public Domain
T:Public Domain
T:Public Domain
C:Calixa Lavalle
Z:Public Domain
%%score ( 1 2 ) ( 3 4 )
L:1/8
M:4/4
K:Eb
V:1 treble 
V:2 treble 
V:3 bass 
V:4 bass 
V:1
 [EG]4 [FB]3 [FB] | E6 [DF]2 | [EG]2 [EA]2 [EB]2 [Ec]2 | (E4 D4) | (E2 G2) [^F=A]3 [FA] | %5
w: 1.~O Ca- na-|da! Our|and na- tive land!|True *|triot * love in|
w: 2.~O Ca- na-|da! Where|and ma- ples grow,|Great *|ies * spread and|
w: 3.~O Ca- na-|da! Be-|thy shin- ing skies|May *|wart * sons and|
w: 4.~Rul- er Su-|preme, who|est hum- ble prayer,|Hold *|do- * min- ion|
 [GB]6 [=Ec]2 | [Fd]2 [Fd]2 [Ec]2 [Ec]2 | [DB]6 (F>G) | [DA]3 [DG] [DF]2 ([EG]>[FA]) | %9
w: thy sons|com- mand. With glow-|ing hearts *|see thee rise, The *|
w: ly ri-|vers flow, How dear|to us *|broad do- main, From *|
w: tle maid-|ens rise, To keep|thee stead- *|through the years From *|
w: Thy lov-|ing care; Help us|to find, *|God, in Thee A *|
 [GB]3 [FA] [EG]2 ([DA]>[EB]) | [Ec]2 [EB]2 [FA]2 [EG]2 | [DF]6 (F>G) | %12
w: True North strong and *|free! From far and|wide, O *|
w: East to West- ern *|Sea, Thou land of|hope for *|
w: East to West- ern *|Sea, Our own be-|lov- ed *|
w: last- ing, rich re- *|ward, As, wait- ing|for the *|
 [DA]3 [DG] [DF]2 ([EG]>[FA]) | [GB]3 [FA] [EG]2 [_DG]2 | [DF]2 [FB]2 (B=A)(GA) | [DB]8 || %16
w: na- da, We stand *|on guard for thee.|||
w: who toil! Thou True *|North, strong and free!|God keep our * land *|and|
w: tive land! Our True *|North, strong and free!|||
w: ter day, We ev- *|er stand on guard.|||
"^Refrain" [EG]4 [FB]3 [FB] | E8 | [FA]4 [Fc]3 [Fc] | (F4 D4) x4 | [EB]4 [F=B]3 [FB] | %21
w: |||||
w: free! O Ca-|na-|we stand on|guard *|thee. O Ca-|
w: |||||
w: |||||
 [Ec]2 [EA]2 [EG]2 [CF]2 | [B,E]4 [DF]4 | (z2 B,2 E2 G2) | [EB]4 [Fe]3 [Fe] | %25
w: ||||
w: na- da, we stand|on guard||* thee. *|
w: ||||
w: ||||
 [Ec]2 [EA]2 [EG]2 [CF]2 | [EB]4 [B,D]4 | [B,E]8 |] %28
w: |||
w: |||
w: |||
w: |||
V:2
 x8 | E6 x2 | x8 | F8 | G4 x4 | x8 | x8 | x6 D2 | x8 | x8 | x8 | x6 D2 | x8 | x8 | x4 E2 E2 | x8 || %16
w: |home||pa-|all|||we||||Ca-|||||
w: |pines||prair-|lord-|||thy||||all|||glor- ious||
w: |neath||stal-|gen-|||fast||||na-|||||
w: |hear-||our|in|||O||||bet-|||||
 x8 | E8 | x8 | F8 x4 | x8 | x8 | x8 | [EG]8 | x8 | x8 | x8 | x8 |] %28
w: ||||||||||||
w: |da,||for||||for|||||
w: ||||||||||||
w: ||||||||||||
V:3
 [E,B,]4 [D,B,]3 [D,B,] | [C,G,]6 [B,,B,]2 | [E,B,]2 [C,C]2 [G,,B,]2 [A,,F,]2 | [B,,B,]8 | %4
 [E,B,]4 [D,D]3 [D,D] | [G,D]6 [_G,B,]2 | [F,B,]2 F,2 [F,G,]2 [F,=A,]2 | [B,,B,]6 (A,>G,) | %8
 [F,B,]3 [G,B,] [A,B,]2 (G,>F,) | [E,B,]3 [D,B,] [E,B,]2 (F,>G,) | A,2 [G,B,]2 [_A,C]2 [=A,C]2 | %11
 [B,D]6 (A,>G,) | [F,B,]3 [G,B,] [A,B,]2 (G,>F,) | [E,B,]3 [D,B,] [E,B,]2 [=E,B,]2 | %14
 [F,B,]2 [F,D]2 [F,C]2 [F,C]2 | (B,,2 A,2 G,2 F,2) || [E,B,]4 [D,B,]3 [D,B,] | %17
 (C,2 B,,2 A,,2 G,,2) | [F,,F,C]4 [E,A,]3 [E,A,] | (D,2- [C,D,]2 B,,2 A,,2) x4 | %20
 [G,,G,B,]4 [G,,G,D]3 [G,,G,D] | [A,,A,C]2 [A,,C]2 [A,,B,]2 [A,,A,]2 | [B,,G,]4 [B,,B,]4 | %23
 [E,B,]8 | [G,B,]4 [G,=B,]3 [G,B,] | [A,C]2 [F,,C]2 [G,,B,]2 [A,,A,]2 | [B,,G,]4 [B,,A,]4 | %27
 [E,G,]8 |] %28
V:4
 x8 | x8 | x8 | x8 | x8 | x8 | x2 F,2 x4 | x6 B,2 | x6 B,2 | x6 B,2 | =A,2 x6 | x6 B,2 | x6 B,2 | %13
 x8 | x8 | B,8 || x8 | G,4 C4 | x8 | B,8 A,4 | x8 | x8 | x8 | x8 | x8 | x8 | x8 | x8 |] %28

